assets/icons/recruitment_list_img_5.svg

<svg height="32" viewBox="0 0 1024 1024" width="32" xmlns="http://www.w3.org/2000/svg"><path d="m894 462c30.9 0 43.8-39.7 18.7-58l-381.9-277.8a31.81 31.81 0 0 0 -37.6 0l-381.9 277.8c-25.1 18.2-12.2 58 18.8 58h61.9v374h-72c-4.4 0-8 3.6-8 8v52c0 4.4 3.6 8 8 8h784c4.4 0 8-3.6 8-8v-52c0-4.4-3.6-8-8-8h-72v-374zm-382-265.3 271.1 197.2h-542.2zm-248 265.3h117v374h-117zm189 0h117v374h-117zm307 374h-118v-374h118z" fill="#d3a468"/></svg>

<?xml version="1.0" standalone="no"?><!DOCTYPE svg PUBLIC "-//W3C//DTD SVG 1.1//EN" "http://www.w3.org/Graphics/SVG/1.1/DTD/svg11.dtd"><svg t="1566804322997" class="icon" viewBox="0 0 1024 1024" version="1.1" xmlns="http://www.w3.org/2000/svg" p-id="4979" xmlns:xlink="http://www.w3.org/1999/xlink" width="32" height="32"><defs><style type="text/css"></style></defs><path d="M894 462c30.9 0 43.8-39.7 18.7-58L530.8 126.2a31.81 31.81 0 0 0-37.6 0L111.3 404c-25.1 18.2-12.2 58 18.8 58H192v374h-72c-4.4 0-8 3.6-8 8v52c0 4.4 3.6 8 8 8h784c4.4 0 8-3.6 8-8v-52c0-4.4-3.6-8-8-8h-72V462h62zM512 196.7l271.1 197.2H240.9L512 196.7zM264 462h117v374H264V462z m189 0h117v374H453V462z m307 374H642V462h118v374z" p-id="4980" fill="#D3A468"></path></svg>
